X:1
T: Lady Huntly
C:
R:Strathspey
Q: 128
K:Eb
M:4/4
L:1/16
|:B2|GAB2 g3f e2B2 C4|B3G e3G fF3 F3A|GAB2 g3f e2c2 c4|B3c cBAG B2 E3E B2|
GAB2 g3f e2B2 C4|B3G e3G fF3 F3A|GAB2 g3f e2c2 c4|B3c cBAG B2 E3E B2|
G3E B,3E G,2E2 B,2E2|B3G e3G A2F2 F2B2|G3E B,3E G,3E B,3E|B3G e3G B2E2 E2B2|
G3E B,3E G,3E B,3E|B3G e3G AFF2 B2A2|G3e B2g2 e2G2 B2E2|A2Bc D3B G2E2 E2:|
